<?xml version="1.0" encoding="UTF-8"?>
<map version="1.10" tiledversion="1.11.2" orientation="orthogonal" renderorder="right-down" width="40" height="20" tilewidth="48" tileheight="48" infinite="0" nextlayerid="16" nextobjectid="46">
 <tileset firstgid="1" source="tsx files/tileset.tsx"/>
 <tileset firstgid="661" source="tsx files/props.tsx"/>
 <tileset firstgid="1041" source="tsx files/portal.tsx"/>
 <layer id="4" name="bg1" width="40" height="20">
  <data encoding="csv">
311,312,311,311,293,311,318,292,292,293,318,293,293,293,318,311,178,311,292,311,292,293,292,318,318,178,318,293,293,318,293,292,312,311,294,178,293,311,293,292,
294,293,178,294,294,292,292,318,311,293,293,293,294,292,311,178,312,294,311,312,312,293,318,318,318,293,293,293,312,178,293,294,311,293,312,318,178,292,293,178,
178,318,178,292,292,318,318,293,311,318,294,292,293,294,294,178,294,292,293,178,312,311,318,318,293,294,294,294,318,293,312,178,311,292,318,292,292,292,293,311,
293,294,293,312,311,178,293,293,318,311,311,318,178,294,292,178,318,311,311,311,178,311,311,294,293,318,312,293,318,318,294,311,312,312,293,178,318,294,311,293,
293,293,311,318,312,292,312,318,178,311,294,292,292,293,292,292,292,294,178,318,311,178,292,293,292,318,178,318,293,178,311,294,312,294,318,178,178,178,318,292,
178,294,178,294,292,312,312,178,293,318,178,311,294,293,293,318,311,312,311,294,293,318,293,312,292,312,178,318,318,318,311,311,292,293,311,294,294,293,294,318,
311,311,312,311,293,293,312,318,312,294,312,311,318,311,292,318,311,318,292,293,294,293,311,293,311,294,294,292,312,293,294,311,318,293,293,312,318,293,178,311,
318,294,294,178,312,293,311,293,292,312,292,312,311,293,294,294,311,178,318,293,178,312,294,178,292,312,312,294,312,318,311,318,318,311,318,293,178,294,292,311,
293,312,318,311,318,178,311,294,312,178,292,292,311,318,311,312,178,293,292,294,318,293,293,311,292,312,312,312,292,293,318,318,292,312,293,292,178,293,318,294,
294,311,318,294,292,294,178,178,292,318,311,318,292,311,178,178,292,318,311,293,293,318,293,178,294,311,318,311,312,293,178,178,312,292,293,312,312,178,318,292,
311,292,311,311,294,292,311,312,311,311,311,312,312,312,312,312,311,312,293,292,312,293,293,294,294,312,318,178,292,292,178,292,292,293,311,318,293,178,312,293,
287,288,288,288,288,288,288,288,288,293,294,311,294,312,318,292,293,318,178,311,178,292,318,318,293,292,293,294,294,311,292,2147483936,2147483936,2147483936,2147483936,2147483936,2147483936,2147483936,2147483936,2147483935,
309,293,312,294,318,294,293,294,312,293,292,178,293,311,312,293,311,294,294,312,311,294,312,292,311,293,311,318,292,311,178,312,318,312,294,293,292,294,318,319,
309,312,318,293,292,178,294,312,293,293,293,293,312,293,311,311,311,178,178,293,312,293,318,292,318,312,178,294,312,294,318,292,294,293,292,311,311,293,312,319,
309,294,292,311,318,311,292,293,318,318,311,312,318,312,312,318,318,311,311,311,178,294,311,293,178,311,292,312,312,292,178,294,294,294,292,312,312,312,318,319,
309,311,294,312,311,178,292,292,293,293,178,311,311,293,294,293,178,311,293,292,311,178,312,294,312,293,311,178,178,294,311,311,311,292,292,178,311,312,312,319,
331,332,333,333,332,333,332,332,332,332,332,333,333,333,332,333,332,333,332,332,332,332,332,333,332,332,333,333,333,332,333,332,333,333,332,332,333,333,333,341,
0,0,0,0,0,0,0,0,0,0,0,0,0,0,0,0,0,0,0,0,0,0,0,0,0,0,0,0,0,0,0,0,0,0,0,0,0,0,0,0,
0,0,0,0,0,0,0,0,0,0,0,0,0,0,0,0,0,0,0,0,0,0,0,0,0,0,0,0,0,0,0,0,0,0,0,0,0,0,0,0,
0,0,0,0,0,0,0,0,0,0,0,0,0,0,0,0,0,0,0,0,0,0,0,0,0,0,0,0,0,0,0,0,0,0,0,0,0,0,0,0
</data>
 </layer>
 <layer id="5" name="bg2" width="40" height="20">
  <data encoding="csv">
0,0,0,0,0,0,0,0,0,0,0,0,0,0,0,0,0,0,0,0,0,0,0,0,0,0,0,0,0,0,0,0,0,0,0,0,0,0,0,0,
0,155,156,156,156,156,156,156,156,156,156,156,156,156,156,156,156,156,156,156,156,156,156,156,156,156,156,156,156,156,156,156,156,156,156,156,156,156,157,0,
0,177,0,0,0,0,0,0,0,0,0,0,0,0,0,0,0,0,0,0,0,0,0,0,0,0,0,0,0,0,0,0,0,0,0,0,0,0,179,0,
0,177,0,0,0,0,0,0,0,0,0,0,0,0,0,0,0,0,0,0,0,0,0,0,0,0,0,0,0,0,0,0,0,0,0,0,0,0,179,0,
0,331,222,222,200,222,222,235,0,0,0,0,0,0,0,0,0,0,0,0,0,0,0,0,0,0,0,0,0,0,0,0,234,222,222,222,200,200,341,0,
0,0,0,0,0,0,0,0,188,0,0,0,0,0,0,0,0,0,0,0,0,0,0,0,0,0,0,0,0,0,0,189,0,0,0,0,0,0,0,0,
0,155,156,156,156,156,156,156,210,0,0,0,0,0,0,0,0,0,0,0,0,0,0,0,0,0,0,0,0,0,0,211,156,156,156,156,156,156,157,0,
0,177,0,0,0,0,0,0,0,0,0,0,0,0,0,0,0,0,0,0,0,0,0,0,0,0,0,0,0,0,0,0,0,0,0,0,0,0,0,0,
0,177,0,0,0,0,0,0,0,0,0,0,0,0,0,0,0,0,0,0,0,0,0,0,0,0,0,0,0,0,0,0,0,0,0,0,0,0,0,0,
0,331,200,200,200,200,222,222,235,0,0,0,0,0,0,0,0,0,0,0,0,0,0,0,0,0,0,0,0,0,0,234,222,222,200,200,200,222,341,0,
0,0,0,0,0,0,0,0,0,188,0,0,0,0,0,0,0,0,0,0,0,0,0,0,0,0,0,0,0,0,189,0,0,0,0,0,0,0,0,0,
0,155,0,0,0,0,0,0,0,210,0,0,0,0,0,0,0,0,0,0,0,0,0,0,0,0,0,0,0,0,211,0,0,0,0,0,0,0,157,0,
0,177,0,0,0,0,0,0,0,0,0,0,0,0,0,0,0,0,0,0,0,0,0,0,0,0,0,0,0,0,0,0,0,0,0,0,0,0,179,0,
0,177,0,0,0,0,0,0,0,0,0,0,0,0,0,0,0,0,0,0,0,0,0,0,0,0,0,0,0,0,0,0,0,0,0,0,0,0,179,0,
0,177,0,0,0,0,0,0,0,0,0,0,0,0,0,0,0,0,0,0,0,0,0,0,0,0,0,0,0,0,0,0,0,0,0,0,0,0,179,0,
0,177,0,0,0,0,0,0,0,0,0,0,0,0,0,0,0,0,0,0,0,0,0,0,0,0,0,0,0,0,0,0,0,0,0,0,0,0,179,0,
0,199,0,0,0,0,0,0,0,0,0,0,0,0,0,0,0,0,0,0,0,0,0,0,0,0,0,0,0,0,0,0,0,0,0,0,0,0,201,0,
0,0,0,0,0,0,0,0,0,0,0,0,0,0,0,0,0,0,0,0,0,0,0,0,0,0,0,0,0,0,0,0,0,0,0,0,0,0,0,0,
0,0,0,0,0,0,0,0,0,0,0,0,0,0,0,0,0,0,0,0,0,0,0,0,0,0,0,0,0,0,0,0,0,0,0,0,0,0,0,0,
0,0,0,0,0,0,0,0,0,0,0,0,0,0,0,0,0,0,0,0,0,0,0,0,0,0,0,0,0,0,0,0,0,0,0,0,0,0,0,0
</data>
 </layer>
 <layer id="6" name="bg3" width="40" height="20">
  <data encoding="csv">
0,0,0,0,0,0,0,0,0,0,0,0,0,0,0,0,0,0,0,0,0,0,0,0,0,0,0,0,0,0,0,0,0,0,0,0,0,0,0,0,
0,0,0,0,261,0,0,0,0,0,0,0,0,0,0,0,0,0,0,0,0,0,0,0,0,0,0,0,0,0,0,0,0,0,0,261,0,0,0,0,
0,0,0,0,283,0,0,0,0,0,0,0,0,0,0,0,0,0,0,0,0,0,0,0,0,0,0,0,0,0,0,0,0,0,0,283,0,0,0,0,
0,0,0,0,283,0,0,0,0,0,0,0,0,0,0,0,0,0,0,0,0,0,0,0,0,0,0,0,0,0,0,0,0,0,0,283,0,0,0,0,
0,0,0,0,305,0,0,0,0,0,0,0,0,0,0,0,0,0,0,0,0,0,0,0,0,0,0,0,0,0,0,0,0,0,0,305,0,0,0,0,
0,0,0,0,0,0,0,0,0,0,0,0,0,0,0,0,0,0,0,0,0,0,0,0,0,0,0,0,0,0,0,0,0,0,0,0,0,0,0,0,
0,0,0,0,261,0,0,0,0,0,0,0,0,0,0,0,0,0,0,0,0,0,0,0,0,0,0,0,0,0,0,0,0,0,0,261,0,0,0,0,
0,0,0,0,283,0,0,0,0,0,0,0,0,0,0,0,0,0,0,0,0,0,0,0,0,0,0,0,0,0,0,0,0,0,0,283,0,0,0,0,
0,0,0,0,283,0,0,0,0,0,0,0,0,0,0,0,0,0,0,0,0,0,0,0,0,0,0,0,0,0,0,0,0,0,0,283,0,0,0,0,
0,0,0,0,305,0,0,0,0,0,0,0,0,0,0,0,0,0,0,0,0,0,0,0,0,0,0,0,0,0,0,0,0,0,0,305,0,0,0,0,
0,0,0,0,0,0,0,0,0,0,0,0,0,0,0,0,0,0,0,0,0,0,0,0,0,0,0,0,0,0,0,0,0,0,0,0,0,0,0,0,
0,0,0,0,261,0,0,0,0,0,0,0,0,0,0,0,0,0,0,0,0,0,0,0,0,0,0,0,0,0,0,0,0,0,0,261,0,0,0,0,
0,0,0,0,283,0,0,0,0,0,0,0,0,0,0,0,0,0,0,0,0,0,0,0,0,0,0,0,0,0,0,0,0,0,0,283,0,0,0,0,
0,0,0,0,283,0,0,0,0,0,0,0,0,0,0,0,0,0,0,0,0,0,0,0,0,0,0,0,0,0,0,0,0,0,0,283,0,0,0,0,
0,0,0,0,283,0,0,0,0,0,0,0,0,0,0,0,0,0,0,0,0,0,0,0,0,0,0,0,0,0,0,0,0,0,0,283,0,0,0,0,
0,0,0,0,283,0,0,0,0,0,0,0,0,0,0,0,0,0,0,0,0,0,0,0,0,0,0,0,0,0,0,0,0,0,0,283,0,0,0,0,
0,0,0,0,305,0,0,0,0,0,0,0,0,0,0,0,0,0,0,0,0,0,0,0,0,0,0,0,0,0,0,0,0,0,0,305,0,0,0,0,
0,0,0,0,0,0,0,0,0,0,0,0,0,0,0,0,0,0,0,0,0,0,0,0,0,0,0,0,0,0,0,0,0,0,0,0,0,0,0,0,
0,0,0,0,0,0,0,0,0,0,0,0,0,0,0,0,0,0,0,0,0,0,0,0,0,0,0,0,0,0,0,0,0,0,0,0,0,0,0,0,
0,0,0,0,0,0,0,0,0,0,0,0,0,0,0,0,0,0,0,0,0,0,0,0,0,0,0,0,0,0,0,0,0,0,0,0,0,0,0,0
</data>
 </layer>
 <layer id="10" name="props1" width="40" height="20">
  <data encoding="csv">
0,0,0,0,0,0,0,0,0,0,0,0,0,0,0,0,0,0,0,0,0,0,0,0,0,0,0,0,0,0,0,0,0,0,0,0,0,0,0,0,
0,0,0,0,0,0,0,0,0,0,0,0,0,0,0,0,0,0,0,0,0,0,0,0,0,0,0,0,0,0,0,0,0,0,0,0,0,0,0,0,
0,0,0,0,0,0,668,669,0,667,0,0,0,0,0,0,0,0,0,0,668,669,0,0,0,0,0,0,0,0,667,0,668,669,0,0,0,0,0,0,
0,0,0,0,0,0,687,688,0,686,0,0,0,0,0,0,0,0,0,0,687,688,0,0,0,0,0,0,0,0,686,0,687,688,0,0,0,777,778,0,
0,0,0,0,0,0,0,0,0,0,0,0,0,667,0,0,0,0,0,0,0,0,0,0,0,0,0,0,667,0,0,0,670,671,672,689,690,796,797,0,
0,0,0,0,0,0,0,0,0,0,0,0,0,686,0,0,667,0,0,0,0,0,0,0,0,667,0,0,686,0,0,0,0,0,0,0,0,0,0,0,
0,0,0,0,0,0,0,0,0,0,0,0,0,0,0,0,686,0,0,0,0,0,0,0,0,686,0,0,0,0,0,0,0,0,0,0,0,0,0,0,
0,0,0,0,0,0,0,0,0,0,667,0,0,0,0,0,0,0,706,0,668,669,0,0,0,0,0,0,0,667,0,0,668,669,0,0,0,0,0,0,
0,0,0,0,0,0,0,0,0,0,686,0,0,0,0,0,857,858,725,0,687,688,0,0,0,0,706,0,0,686,0,0,687,688,0,0,0,0,0,0,
0,0,0,0,0,0,0,0,0,0,0,0,0,0,0,0,876,877,0,0,0,0,0,0,0,0,725,0,0,0,0,825,0,0,0,0,0,0,0,0,
0,0,0,0,0,0,0,0,0,0,0,0,0,0,0,0,0,0,0,0,0,0,0,706,0,0,0,0,0,0,0,0,0,0,0,0,0,0,0,0,
0,0,0,0,0,0,0,0,0,0,0,0,0,857,858,0,0,0,0,0,0,0,0,725,0,0,857,858,0,0,0,0,0,0,0,0,0,0,0,0,
0,0,0,0,0,0,0,0,0,0,0,0,0,876,877,0,0,0,0,0,0,0,0,0,0,0,876,877,0,0,0,0,0,0,0,0,0,0,0,0,
0,0,0,0,0,0,0,0,0,0,0,0,0,0,0,0,0,0,0,0,0,0,0,0,0,0,0,0,0,0,0,0,0,0,0,0,0,0,0,0,
0,0,0,0,0,0,668,669,0,0,667,0,667,0,0,0,0,0,0,0,668,669,0,0,0,0,0,667,0,667,0,0,668,669,0,0,0,0,0,0,
0,0,775,776,1041,1042,687,688,0,0,686,0,686,0,0,0,0,0,0,0,687,688,0,0,0,0,0,686,0,686,0,0,687,688,0,0,0,788,789,0,
0,0,794,795,1053,1054,0,0,0,0,0,0,0,0,0,0,0,0,0,0,0,0,0,0,0,0,0,0,0,825,257,0,730,730,730,730,730,807,808,0,
0,0,0,0,0,0,0,0,0,0,0,0,0,0,0,0,0,0,0,0,0,0,0,0,0,0,0,0,0,0,0,0,0,0,0,0,0,0,0,0,
0,0,0,0,0,0,0,0,0,0,0,0,0,0,0,0,0,0,0,0,0,0,0,0,0,0,0,0,0,0,0,0,0,0,0,0,0,0,0,0,
0,0,0,0,0,0,0,0,0,0,0,0,0,0,0,0,0,0,0,0,0,0,0,0,0,0,0,0,0,0,0,0,0,0,0,0,0,0,0,0
</data>
 </layer>
 <layer id="7" name="props2" width="40" height="20">
  <data encoding="csv">
0,0,0,0,0,0,0,0,0,0,0,0,0,0,0,0,0,0,0,0,0,0,0,0,0,0,0,0,0,0,0,0,0,0,0,0,0,0,0,0,
0,661,0,0,0,0,0,0,0,0,0,0,0,0,0,0,0,0,0,0,0,0,0,0,0,0,0,0,0,0,0,0,0,0,0,0,0,0,662,0,
0,0,0,0,0,0,0,0,0,0,0,0,0,0,0,0,0,0,0,0,0,0,0,0,0,0,0,0,0,0,0,0,0,0,0,0,0,0,0,0,
0,601,602,598,603,704,705,818,819,0,0,0,0,0,0,0,0,0,0,0,0,0,0,0,0,0,0,0,0,0,0,0,0,0,0,0,0,0,0,0,
0,645,641,646,647,723,724,837,838,0,0,0,0,0,0,0,0,0,0,0,0,0,0,0,0,0,0,0,0,0,0,0,0,0,0,0,0,0,0,0,
0,0,0,0,0,0,0,0,0,0,0,0,0,0,0,0,0,0,0,0,0,0,0,0,0,0,0,0,0,0,0,0,0,0,0,0,0,0,0,0,
0,661,0,0,0,0,0,0,0,0,0,0,0,0,0,0,0,0,0,0,0,0,0,0,0,0,0,0,0,0,0,0,0,0,0,0,0,0,662,0,
0,595,596,597,598,597,598,598,600,0,0,0,0,0,0,0,0,0,0,0,0,0,0,0,0,0,0,0,0,0,0,0,0,0,0,0,0,0,0,0,
0,617,618,619,620,619,620,620,622,0,0,0,0,0,0,0,0,0,0,0,0,0,0,0,0,0,0,0,0,0,0,0,0,0,0,699,678,679,820,0,
0,639,640,641,642,641,642,642,644,0,0,0,0,0,0,0,0,0,0,0,0,0,0,0,0,0,0,0,0,0,0,0,759,700,722,718,697,698,839,0,
0,0,0,0,0,0,0,0,0,0,0,0,0,0,0,0,0,0,0,0,0,0,0,0,0,0,0,0,0,0,0,0,0,0,0,0,0,0,0,0,
0,661,0,0,0,0,0,0,0,0,0,0,0,0,0,0,0,0,0,0,0,0,0,0,0,0,0,0,0,0,0,0,0,0,0,0,0,0,662,0,
0,0,0,0,0,0,0,0,0,0,0,0,0,0,0,0,0,0,0,0,898,2147484546,0,0,0,0,0,0,0,0,0,0,0,0,0,0,0,0,0,0,
0,0,0,0,0,0,0,0,0,0,0,0,0,0,0,0,0,0,0,0,917,2147484565,0,0,0,0,0,0,0,0,0,0,0,0,0,0,0,0,0,0,
0,0,0,0,0,0,0,0,0,0,0,0,0,0,0,0,895,2147484512,2147484511,0,0,0,0,863,864,895,0,0,0,0,0,0,0,0,0,0,0,0,0,0,
0,0,0,0,0,0,0,0,0,0,0,0,2147484474,2147484508,0,0,914,0,2147484501,0,867,868,0,853,0,914,0,860,826,0,0,0,0,0,0,0,0,0,0,0,
0,0,0,0,0,0,0,0,0,0,0,0,2147484493,2147484527,2147484539,2147484538,889,743,0,762,886,887,890,891,760,762,889,879,845,0,0,2147484378,884,2147484532,884,2147484532,0,0,0,0,
0,0,0,0,0,0,0,0,0,0,0,0,0,0,0,0,0,0,0,0,0,0,0,0,0,0,0,0,0,0,0,0,0,0,0,0,0,0,0,0,
0,0,0,0,0,0,0,0,0,0,0,0,0,0,0,0,0,0,0,0,0,0,0,0,0,0,0,0,0,0,0,0,0,0,0,0,0,0,0,0,
0,0,0,0,0,0,0,0,0,0,0,0,0,0,0,0,0,0,0,0,0,0,0,0,0,0,0,0,0,0,0,0,0,0,0,0,0,0,0,0
</data>
 </layer>
 <layer id="1" name="Ground" width="40" height="20">
  <data encoding="csv">
25,23,24,23,23,23,23,25,24,25,23,25,24,24,24,25,25,23,24,25,23,23,23,24,25,23,24,25,25,23,23,23,25,24,24,24,25,24,23,24,
67,0,0,0,0,0,0,0,0,0,0,0,0,0,0,0,0,0,0,0,0,0,0,0,0,0,0,0,0,0,0,0,0,0,0,0,0,0,0,79,
67,0,0,0,0,0,0,0,0,0,0,0,0,0,0,0,0,0,0,0,0,0,0,0,0,0,0,0,0,0,0,0,0,0,0,0,0,0,0,79,
67,0,0,0,0,0,0,0,0,0,0,0,0,0,0,0,0,0,0,0,0,0,0,0,0,0,0,0,0,0,0,0,0,0,0,0,0,0,0,79,
89,0,0,0,0,0,0,0,0,0,0,0,0,0,0,0,0,0,0,0,0,0,0,0,0,0,0,0,0,0,0,0,0,0,0,0,0,0,0,101,
69,69,69,69,69,69,69,70,0,0,0,0,0,0,0,0,0,0,0,0,0,0,0,0,0,0,0,0,0,0,0,0,68,69,69,69,69,69,69,69,
67,0,0,0,0,0,0,0,0,0,0,0,0,0,0,0,0,0,0,0,0,0,0,0,0,0,0,0,0,0,0,0,0,0,0,0,0,0,0,79,
67,0,0,0,0,0,0,0,0,0,513,0,0,0,0,0,0,0,0,0,0,0,0,0,0,0,0,0,0,513,0,0,0,0,0,0,0,0,0,79,
67,0,0,0,0,0,0,0,0,0,0,0,0,0,0,0,0,0,0,0,0,0,0,0,0,0,0,0,0,0,0,0,0,0,0,0,0,0,0,79,
89,0,0,0,0,0,0,0,0,0,0,0,0,0,0,0,0,0,0,0,0,0,0,0,0,0,0,0,0,0,0,0,0,0,0,0,0,0,0,101,
69,69,69,69,69,69,69,69,70,0,0,0,0,0,0,0,0,0,0,0,0,0,0,0,0,0,0,0,0,0,0,68,69,69,69,69,69,69,69,69,
45,0,0,0,0,0,0,0,0,0,0,0,0,0,0,0,0,0,0,0,0,0,0,0,0,0,0,0,0,0,0,0,0,0,0,0,0,0,0,57,
67,0,0,0,0,0,0,0,0,0,513,0,0,0,0,0,0,0,0,0,0,0,0,0,0,0,0,0,0,513,0,0,0,0,0,0,0,0,0,79,
67,0,0,0,0,0,0,0,0,0,0,0,0,0,0,0,0,0,0,0,0,0,0,0,0,0,0,0,0,0,0,0,0,0,0,0,0,0,0,79,
67,0,0,0,0,0,0,0,0,0,0,0,0,513,0,0,0,0,0,0,0,0,0,0,0,0,513,0,0,0,0,0,0,0,0,0,0,0,0,79,
67,0,0,0,0,0,0,0,0,0,0,0,0,0,0,0,0,0,0,0,0,0,0,0,0,0,0,0,0,0,0,0,0,0,0,0,0,0,0,79,
89,0,0,0,0,0,0,0,0,0,0,0,0,0,0,0,0,0,0,0,0,0,0,0,0,0,0,0,0,0,0,0,0,0,0,0,0,0,0,101,
134,114,134,133,133,134,134,133,135,136,133,133,114,133,114,134,133,114,133,134,114,114,133,114,133,114,114,134,134,135,136,133,114,134,134,133,114,114,133,133,
75,72,75,73,74,76,74,73,76,76,75,75,72,76,75,74,72,73,72,72,74,74,72,75,72,72,74,75,75,73,72,76,72,76,72,73,72,72,73,73,
74,74,74,74,75,73,74,74,76,73,72,76,72,72,75,75,75,75,72,72,74,75,73,75,75,76,76,75,74,74,76,72,73,75,72,73,72,74,76,76
</data>
 </layer>
 <layer id="12" name="props3" width="40" height="20">
  <data encoding="csv">
0,0,0,0,0,0,0,0,0,0,0,0,0,0,0,0,0,0,0,0,0,0,0,0,0,0,0,0,0,0,0,0,0,0,0,0,0,0,0,0,
0,0,0,0,0,0,0,0,0,0,0,0,0,0,0,0,0,0,0,0,0,0,0,0,0,0,0,0,0,0,0,0,0,0,0,0,0,0,0,0,
0,0,0,0,0,0,0,0,0,0,0,0,0,0,0,0,0,0,0,0,0,0,0,0,0,0,0,0,0,0,0,0,0,0,0,0,0,0,0,0,
0,0,0,0,0,0,0,0,0,0,0,0,0,0,0,0,0,0,0,0,0,0,0,0,0,0,0,0,0,0,0,0,0,0,0,0,744,0,0,0,
0,257,0,856,0,0,0,0,0,0,0,0,0,0,0,0,0,0,0,0,0,0,0,0,0,0,0,0,0,0,0,0,0,0,0,0,763,856,257,0,
0,0,0,0,0,0,0,0,0,0,0,0,0,0,0,0,0,0,0,0,0,0,0,0,0,0,0,0,0,0,0,0,0,0,0,0,0,0,0,878,
0,0,0,0,0,0,0,0,0,0,0,0,0,0,0,0,0,0,0,0,0,0,0,0,0,0,0,0,0,0,0,0,0,0,0,0,0,0,0,878,
0,0,0,0,0,0,0,0,0,0,0,0,0,0,0,0,0,0,0,0,0,0,0,0,0,0,0,0,0,0,0,0,0,0,0,0,0,0,0,878,
0,0,0,0,0,0,0,0,0,0,0,0,0,0,0,0,0,0,0,0,0,0,0,0,0,0,0,0,0,0,0,0,0,0,0,0,0,0,0,878,
0,257,856,0,0,0,0,0,0,0,0,0,0,0,0,707,0,0,0,0,0,0,0,0,0,0,0,0,0,0,0,0,0,0,0,0,0,856,257,878,
0,0,0,0,0,0,0,0,0,0,0,0,0,0,0,726,0,0,0,0,0,0,0,0,0,0,0,0,0,0,0,0,0,0,0,0,0,0,0,878,
0,0,0,0,0,0,0,0,0,0,0,0,0,0,0,0,0,0,0,0,0,0,0,0,0,0,0,0,0,0,0,0,0,0,0,0,0,0,0,878,
0,0,0,0,0,0,0,0,0,0,0,0,0,0,0,0,0,0,0,0,0,0,0,0,0,0,0,0,708,0,0,0,0,0,0,0,0,0,0,878,
0,0,0,0,0,0,0,0,0,0,0,0,0,0,0,0,0,0,0,0,0,0,0,0,0,0,0,0,727,0,0,0,0,0,0,0,0,0,0,878,
0,0,0,0,0,0,0,0,0,0,0,0,0,0,0,0,0,0,0,0,0,0,0,0,0,0,0,0,0,0,0,0,0,0,0,0,0,0,0,878,
0,0,0,0,0,0,0,0,0,0,0,0,0,0,0,0,0,0,0,0,0,0,0,0,0,0,0,0,0,0,0,0,0,0,0,0,0,0,0,878,
0,0,0,0,0,0,0,0,856,257,0,856,0,0,0,0,0,0,0,0,0,0,0,0,0,0,0,0,0,856,0,0,0,0,0,0,0,0,0,878,
0,0,0,0,0,0,0,0,0,0,0,0,0,0,0,0,0,0,0,0,0,0,0,0,0,0,0,0,0,0,0,0,0,0,0,0,0,0,0,0,
0,0,0,0,0,0,0,0,0,0,0,0,0,0,0,0,0,0,0,0,0,0,0,0,0,0,0,0,0,0,0,0,0,0,0,0,0,0,0,0,
0,0,0,0,0,0,0,0,0,0,0,0,0,0,0,0,0,0,0,0,0,0,0,0,0,0,0,0,0,0,0,0,0,0,0,0,0,0,0,0
</data>
 </layer>
 <objectgroup id="14" name="Potions">
  <properties>
   <property name="healing_amount" type="int" value="20"/>
   <property name="potion_type" value="health_potion"/>
  </properties>
  <object id="41" x="136.667" y="173.583" width="41" height="48.75">
   <properties>
    <property name="healing_amount" type="int" value="30"/>
    <property name="potion_type" value="health_potion"/>
   </properties>
  </object>
  <object id="44" x="1636.67" y="172.917" width="41" height="48.75">
   <properties>
    <property name="healing_amount" type="int" value="30"/>
    <property name="potion_type" value="health_potion"/>
   </properties>
  </object>
  <object id="45" x="1755.33" y="413.583" width="41" height="48.75">
   <properties>
    <property name="healing_amount" type="int" value="30"/>
    <property name="potion_type" value="health_potion"/>
   </properties>
  </object>
  <object id="43" x="121.333" y="415.583" width="41" height="48.75">
   <properties>
    <property name="healing_amount" type="int" value="30"/>
    <property name="potion_type" value="health_potion"/>
   </properties>
  </object>
 </objectgroup>
 <objectgroup id="13" name="hazards">
  <object id="27" x="52.3636" y="225.455" width="38.1818" height="14.3636">
   <properties>
    <property name="damage_amount" type="int" value="1"/>
   </properties>
  </object>
  <object id="28" x="52.7273" y="465.273" width="37.6364" height="14.9091">
   <properties>
    <property name="damage_amount" type="int" value="1"/>
   </properties>
  </object>
  <object id="29" x="437.273" y="800.727" width="38.1818" height="15.4545">
   <properties>
    <property name="damage_amount" type="int" value="1"/>
   </properties>
  </object>
  <object id="30" x="1445.45" y="802.182" width="38.3636" height="13.8182">
   <properties>
    <property name="damage_amount" type="int" value="1"/>
   </properties>
  </object>
  <object id="31" x="1830" y="465.818" width="37.0909" height="14.1818">
   <properties>
    <property name="damage_amount" type="int" value="1"/>
   </properties>
  </object>
  <object id="32" x="1828.73" y="226.364" width="38" height="12.9091">
   <properties>
    <property name="damage_amount" type="int" value="1"/>
   </properties>
  </object>
 </objectgroup>
 <objectgroup id="2" name="Collision">
  <object id="9" x="48" y="816" width="1824" height="48"/>
  <object id="14" x="479.333" y="608.485" width="47.6364" height="3.27273"/>
  <object id="15" x="625" y="704.273" width="48" height="2.90909"/>
  <object id="16" x="48" y="480" width="384" height="48"/>
  <object id="17" x="480.333" y="367.333" width="47.3333" height="3.66667"/>
  <object id="18" x="48" y="240" width="336" height="48"/>
  <object id="19" x="0" y="48" width="48" height="768"/>
  <object id="20" x="48" y="0" width="1824" height="48"/>
  <object id="21" x="1872" y="48" width="48" height="768"/>
  <object id="22" x="1488" y="480" width="384" height="48"/>
  <object id="23" x="1536" y="240" width="336" height="48"/>
  <object id="24" x="1247.75" y="703.5" width="48.25" height="3"/>
  <object id="25" x="1392.25" y="606.75" width="47.5" height="3"/>
  <object id="26" x="1393" y="367" width="46.25" height="3.25"/>
 </objectgroup>
 <objectgroup id="3" name="spawn">
  <object id="2" name="castle_entry" x="215.5" y="730.5" width="50.5" height="70"/>
  <object id="33" name="spawn_point" x="89.5" y="706.5" width="56" height="70.5"/>
 </objectgroup>
</map>
